X:1
T:Old Hag at the Churn
M:6/8
L:1/8
Q:80
C:Trad.
S:Jig
K:HP
|: {gef}e2d{g}eA{G}A | \
{gef}e2d{g}eag | \
{ef}e2d{g}eA{G}A |
{g}Bcd{g}Bcd :: \
{g}eaf{gf}g2d | \
{g}eafgBd |
{g}eaf{gf}g2d | \
{g}Bcd{g}Bcd :|
